bundles/org.openhab.ui.habpanel/web/assets/icons/smarthome-set/heater.svg

<?xml version="1.0" encoding="UTF-8" standalone="no"?>
<svg width="32px" height="32px" viewBox="0 0 32 32" version="1.1" xmlns="http://www.w3.org/2000/svg" xmlns:xlink="http://www.w3.org/1999/xlink" xmlns:sketch="http://www.bohemiancoding.com/sketch/ns">
    <!-- Generator: Sketch 3.3.2 (12043) - http://www.bohemiancoding.com/sketch -->
    <title>heater</title>
    <desc>Created with Sketch.</desc>
    <defs></defs>
    <g id="flatten" stroke="none" stroke-width="1" fill="none" fill-rule="evenodd" sketch:type="MSPage">
        <g id="z-copy" sketch:type="MSArtboardGroup" transform="translate(-36.000000, -196.000000)" fill="#000000">
            <g id="heater" sketch:type="MSLayerGroup" transform="translate(36.000000, 196.000000)">
                <path d="M15,9.95512001 C14.1947981,9.8071959 13.5217208,9.29791786 13.1999839,8.491453 C13.010551,8.01662085 12.9942767,7.7748689 12.9993977,7.11501069 C12.9998678,7.0534272 12.9998678,7.0534272 13,7 C13,6.71302493 12.5427743,6.27530412 12,6.08896986 L12,25.9110301 C12.5427743,25.7246959 13,25.2869751 13,25 C12.9998455,24.9451974 12.9998455,24.9451974 12.9992865,24.8809597 C12.9934625,24.2233066 13.009694,23.9808316 13.2004785,23.5047679 C13.5231352,22.6996439 14.1959485,22.1922885 15,22.0448084 L15,9.95512001 L15,9.95512001 Z M16,9.95519164 C16.8040515,9.80771154 17.4768648,9.30035607 17.7995215,8.4952321 C17.990306,8.01916835 18.0065375,7.77669336 18.0007135,7.11904025 C18.0001545,7.05480264 18.0001545,7.05480264 18,7 C18,6.71302493 18.4572257,6.27530412 19,6.08896986 L19,6.08896986 L19,25.9110566 C18.4571909,25.7247546 18,25.2870636 18,25 C18.0001322,24.9465984 18.0001322,24.9465984 18.0006023,24.8850322 C18.0057234,24.2253185 17.9894452,23.9835126 17.8000574,23.5087167 C17.4783667,22.7022368 16.8052787,22.1928378 16,22.0448847 L16,9.95519164 L16,9.95519164 Z M8,9.95519164 C8.80405148,9.80771154 9.47686484,9.30035607 9.7995215,8.4952321 C9.99030596,8.01916835 10.0065375,7.77669336 10.0007135,7.11904025 C10.0001545,7.05480264 10.0001545,7.05480264 10,7 C10,6.71302493 10.4572257,6.27530412 11,6.08896986 L11,6.08896986 L11,25.9110297 C10.4572177,25.7246871 10,25.2869249 10,24.9998075 C10.0001322,24.9464068 10.0001322,24.9464068 10.0006023,24.8848439 C10.0057242,24.2250701 9.98944491,23.9832928 9.79998532,23.5084512 C9.47823,22.7020373 8.80516977,22.1927969 8,22.0448797 L8,9.95519164 L8,9.95519164 Z M7,9.95512001 C6.19479809,9.8071959 5.52172084,9.29791786 5.19998393,8.491453 C5.01055097,8.01662085 4.99427671,7.7748689 4.99939768,7.11501069 C4.99986777,7.0534272 4.99986777,7.0534272 5,7 C5,6.71302493 4.54277425,6.27530412 4,6.08896986 L4,6.08896986 L4,25.9110301 C4.54277425,25.7246959 5,25.2869751 5,25 C4.9998455,24.9451974 4.9998455,24.9451974 4.99928655,24.8809597 C4.99346254,24.2233066 5.00969404,23.9808316 5.2004785,23.5047679 C5.52313516,22.6996439 6.19594852,22.1922885 7,22.0448084 L7,9.95512001 L7,9.95512001 Z M3,6.08896986 C2.45722575,6.27530412 2,6.71302493 2,7 L2,25 C2,25.2869751 2.45722575,25.7246959 3,25.9110301 L3,6.08896986 L3,6.08896986 Z M20,25.9110301 C20.5427743,25.7246959 21,25.2869751 21,25 L21,7 C21,6.71302493 20.5427743,6.27530412 20,6.08896986 L20,25.9110301 L20,25.9110301 Z M15,7 C15,7.55628335 14.9477153,8 15.5,8 C16.0561352,8 16,7.55237094 16,7 C16,5 18.4605162,4 19.5,4 C21.1568542,4 23,5.34314575 23,7 L23,25 C23,26.6568542 21.1568542,28 19.5,28 C18.4605043,28 16,27 16,25 C16,24.4439092 16.0522847,24 15.5,24 C14.9438648,24 15,24.4476291 15,25 C15,27 12.5394728,28 11.5,28 C10.460523,28 8,27 8,24.9998075 C8,24.4437166 8.05228475,24 7.5,24 C6.94386482,24 7,24.4476291 7,25 C7,27 4.5394985,28 3.5,28 C1.84314575,28 0,26.6568542 0,25 L0,7 C0,5.34314575 1.84314575,4 3.5,4 C4.53948377,4 7,5 7,7 C7,7.55628335 6.94771525,8 7.5,8 C8.05613518,8 8,7.55237094 8,7 C8,5 10.4605162,4 11.5,4 C12.5394838,4 15,5 15,7 Z M24,5.99683887 C24,3.78944571 25.7953562,2 28,2 C30.209139,2 32,3.79412025 32,5.99683887 L32,26.0031611 C32,28.2105543 30.2046438,30 28,30 C25.790861,30 24,28.2058797 24,26.0031611 L24,5.99683887 Z M26,5.99683887 L26,26.0031611 C26,27.1029323 26.8970525,28 28,28 C29.1023276,28 30,27.1037327 30,26.0031611 L30,5.99683887 C30,4.89706771 29.1029475,4 28,4 C26.8976724,4 26,4.89626725 26,5.99683887 Z M28,10 C28.5522847,10 29,9.55228475 29,9 C29,8.44771525 28.5522847,8 28,8 C27.4477153,8 27,8.44771525 27,9 C27,9.55228475 27.4477153,10 28,10 Z M28,16 C28.5522847,16 29,15.5522847 29,15 C29,14.4477153 28.5522847,14 28,14 C27.4477153,14 27,14.4477153 27,15 C27,15.5522847 27.4477153,16 28,16 Z M28,20 C28.5522847,20 29,19.5522847 29,19 C29,18.4477153 28.5522847,18 28,18 C27.4477153,18 27,18.4477153 27,19 C27,19.5522847 27.4477153,20 28,20 Z M28,24 C28.5522847,24 29,23.5522847 29,23 C29,22.4477153 28.5522847,22 28,22 C27.4477153,22 27,22.4477153 27,23 C27,23.5522847 27.4477153,24 28,24 Z" sketch:type="MSShapeGroup"></path>
            </g>
        </g>
    </g>
</svg>

<svg width="32" height="32" xmlns="http://www.w3.org/2000/svg"><path d="M15 9.955a2.351 2.351 0 0 1-1.8-1.464c-.19-.474-.206-.716-.2-1.376V7c0-.287-.457-.725-1-.911v19.822c.543-.186 1-.624 1-.911v-.119c-.007-.658.01-.9.2-1.376a2.351 2.351 0 0 1 1.8-1.46V9.955Zm1 0a2.351 2.351 0 0 0 1.8-1.46c.19-.476.207-.718.2-1.376V7c0-.287.457-.725 1-.911v19.822c-.543-.186-1-.624-1-.911v-.115c.006-.66-.01-.901-.2-1.376a2.352 2.352 0 0 0-1.8-1.464V9.955Zm-8 0a2.351 2.351 0 0 0 1.8-1.46c.19-.476.207-.718.2-1.376V7c0-.287.457-.725 1-.911v19.822c-.543-.186-1-.624-1-.911v-.115c.006-.66-.01-.902-.2-1.377A2.351 2.351 0 0 0 8 22.045V9.955Zm-1 0a2.351 2.351 0 0 1-1.8-1.464c-.19-.474-.206-.716-.2-1.376V7c0-.287-.457-.725-1-.911v19.822c.543-.186 1-.624 1-.911v-.119c-.007-.658.01-.9.2-1.376a2.351 2.351 0 0 1 1.8-1.46V9.955ZM3 6.09c-.543.186-1 .624-1 .911v18c0 .287.457.725 1 .911V6.089Zm17 19.822c.543-.186 1-.624 1-.911V7c0-.287-.457-.725-1-.911v19.822ZM15 7c0 .556-.052 1 .5 1 .556 0 .5-.448.5-1 0-2 2.46-3 3.5-3C21.157 4 23 5.343 23 7v18c0 1.657-1.843 3-3.5 3-1.04 0-3.5-1-3.5-3 0-.556.052-1-.5-1-.556 0-.5.448-.5 1 0 2-2.46 3-3.5 3S8 27 8 25c0-.556.052-1-.5-1-.556 0-.5.448-.5 1 0 2-2.46 3-3.5 3C1.843 28 0 26.657 0 25V7c0-1.657 1.843-3 3.5-3C4.54 4 7 5 7 7c0 .556-.052 1 .5 1 .556 0 .5-.448.5-1 0-2 2.46-3 3.5-3S15 5 15 7Zm9-1.003A4.001 4.001 0 0 1 28 2c2.21 0 4 1.794 4 3.997v20.006A4.001 4.001 0 0 1 28 30c-2.21 0-4-1.794-4-3.997V5.997Zm2 0v20.006c0 1.1.897 1.997 2 1.997 1.102 0 2-.896 2-1.997V5.997C30 4.897 29.103 4 28 4c-1.102 0-2 .896-2 1.997ZM28 10a1 1 0 1 0 0-2 1 1 0 0 0 0 2Zm0 6a1 1 0 1 0 0-2 1 1 0 0 0 0 2Zm0 4a1 1 0 1 0 0-2 1 1 0 0 0 0 2Zm0 4a1 1 0 1 0 0-2 1 1 0 0 0 0 2Z" fill="#000" fill-rule="evenodd"/></svg>
